status/symbolic/rotation-allowed-symbolic.svg

<svg enable-background="new" height="16" width="16" xmlns="http://www.w3.org/2000/svg">
  <path d="m5.9502 12.67797c-1.7292-.82493-2.96662-2.506549-3.15698-4.4948695h-.79322c.26441 3.2574595 2.99306 5.8168995 6.31927 5.8168995l.34901-.0159-2.01476-2.02005-.70332.71389m1.45952-10.4439795c-.31199-.312-.81437-.312-1.12108 0l-3.36322 3.36322c-.312.312-.312.81437 0 1.12107l6.35628 6.3562895c.312.312.81437.312 1.12108 0l3.36322-3.3632195c.312-.312.312-.81437 0-1.12108-2.11877-2.11875-4.23753-4.23751-6.35628-6.35628zm5.43087 6.91682-2.99835 2.9983495-5.9914-5.9914095 2.99834-2.99835c1.99324 2.00103 3.99252 3.99602 5.99141 5.99141z" fill="#bebebe" />
</svg>

<?xml version="1.0" encoding="UTF-8" standalone="no"?>
<!-- Created with Inkscape (http://www.inkscape.org/) -->

<svg
   xmlns:osb="http://www.openswatchbook.org/uri/2009/osb"
   xmlns:dc="http://purl.org/dc/elements/1.1/"
   xmlns:cc="http://creativecommons.org/ns#"
   xmlns:rdf="http://www.w3.org/1999/02/22-rdf-syntax-ns#"
   xmlns:svg="http://www.w3.org/2000/svg"
   xmlns="http://www.w3.org/2000/svg"
   xmlns:sodipodi="http://sodipodi.sourceforge.net/DTD/sodipodi-0.dtd"
   xmlns:inkscape="http://www.inkscape.org/namespaces/inkscape"
   sodipodi:docname="rotation-allowed-symbolic.svg"
   inkscape:export-filename="/home/sam/source-symbolic.png"
   inkscape:export-xdpi="270"
   inkscape:export-ydpi="270"
   height="16"
   id="svg7384"
   style="enable-background:new"
   version="1.1"
   inkscape:version="0.91 r13725"
   width="16">
  <sodipodi:namedview
     inkscape:bbox-nodes="true"
     inkscape:bbox-paths="false"
     bordercolor="#666666"
     borderlayer="false"
     borderopacity="1"
     inkscape:current-layer="svg7384"
     inkscape:cx="18.100044"
     inkscape:cy="3.1012223"
     gridtolerance="10"
     inkscape:guide-bbox="true"
     guidetolerance="10"
     id="namedview88"
     inkscape:object-nodes="true"
     inkscape:object-paths="true"
     objecttolerance="10"
     pagecolor="#f7f7f7"
     inkscape:pageopacity="1"
     inkscape:pageshadow="2"
     showborder="true"
     showgrid="false"
     showguides="true"
     inkscape:showpageshadow="false"
     inkscape:snap-bbox="true"
     inkscape:snap-bbox-edge-midpoints="false"
     inkscape:snap-bbox-midpoints="true"
     inkscape:snap-center="false"
     inkscape:snap-global="true"
     inkscape:snap-grids="true"
     inkscape:snap-intersection-paths="true"
     inkscape:snap-midpoints="true"
     inkscape:snap-nodes="true"
     inkscape:snap-object-midpoints="true"
     inkscape:snap-others="true"
     inkscape:snap-page="false"
     inkscape:snap-smooth-nodes="true"
     inkscape:snap-to-guides="true"
     inkscape:window-height="711"
     inkscape:window-maximized="1"
     inkscape:window-width="1366"
     inkscape:window-x="0"
     inkscape:window-y="27"
     inkscape:zoom="22.627417">
    <inkscape:grid
       color="#000000"
       dotted="false"
       empcolor="#0800ff"
       empopacity="0.4627451"
       empspacing="4"
       enabled="true"
       id="grid4866"
       opacity="0.16470588"
       originx="-184.0001"
       originy="-491.97211"
       snapvisiblegridlinesonly="true"
       spacingx="0.25px"
       spacingy="0.25px"
       type="xygrid"
       visible="true" />
  </sodipodi:namedview>
  <metadata
     id="metadata90">
    <rdf:RDF>
      <cc:Work
         rdf:about="">
        <dc:format>image/svg+xml</dc:format>
        <dc:type
           rdf:resource="http://purl.org/dc/dcmitype/StillImage" />
        <dc:title>Paper Symbolic Icon Theme</dc:title>
      </cc:Work>
    </rdf:RDF>
  </metadata>
  <title
     id="title8473">Paper Symbolic Icon Theme</title>
  <defs
     id="defs7386">
    <linearGradient
       id="linearGradient5606"
       osb:paint="solid">
      <stop
         id="stop5608"
         offset="0"
         style="stop-color:#000000;stop-opacity:1;" />
    </linearGradient>
  </defs>
  <path
     id="path4701"
     d="M 5.9502,12.67797 C 4.221,11.85304 2.98358,10.171421 2.79322,8.1831005 l -0.79322,0 C 2.26441,11.44056 4.99306,14 8.31927,14 L 8.66828,13.9841 6.65352,11.96405 5.9502,12.67794 M 7.40972,2.2339605 c -0.31199,-0.312 -0.81437,-0.312 -1.12108,0 l -3.36322,3.36322 c -0.312,0.312 -0.312,0.81437 0,1.12107 L 9.2817,13.07454 c 0.312,0.312 0.81437,0.312 1.12108,0 L 13.766,9.7113205 c 0.312,-0.312 0.312,-0.81437 0,-1.12108 -2.11877,-2.11875 -4.23753,-4.23751 -6.35628,-6.35628 z m 5.43087,6.91682 -2.99835,2.9983495 -5.9914,-5.9914095 2.99834,-2.99835 c 1.99324,2.00103 3.99252,3.99602 5.99141,5.99141 z"
     inkscape:connector-curvature="0"
     style="display:inline;fill:#bebebe;fill-opacity:1;enable-background:new"
     sodipodi:nodetypes="cccccccccscccsccccccc" />
</svg>
